X: 1104
T: New Saranade.
%R: _
B: Henry Playford "Apollo's Banquet", London 1687 (5th Edition)
F: https://archive.org/details/apollosbanquetco01rugg
Z: 2017 John Chambers <jc:trillian.mit.edu>
M: 3/2
L: 1/8
K: C
% - - - - - - - - - -
|:\
c2G2c2 d3efg | edcdef d4d2 | c2G2c2 d3efg | edcdef |\
g3gag | fed3c c6 :: g2g2a>e f3ge2 |
e2a3b ^g3^fe2 | a2e3e f3edc | B2c2d2 B4A2 | e3ef2 g3fef |\
eff2e2 d3cB2 | c2G2c2 d3efg | edcdef d4d2 |
c2G2c2 d3efg | edcdef g3gag | fed3c c6 | e2c2e2 d3cB2 |\
c2c3B A4A2 | d2B3B e3dcB | ABB3c A4G2 |
d3de2 f3gef | g3fe2 d4c2 | c2G2c2 d3efg | edcdef d4d2 |\
c2G2c2 d3efg | edcdef g3gag | fed3c c6 |]
% - - - - - - - - - -

%%sep 1 1 500
%%sep 1 1 500

